X:1
T:Title
%%score ( 1 2 ) { 3 | 4 }
L:1/8
Q:1/4=135
M:6/4
K:Db
V:1 treble nm="Grand Piano, Soprano"
V:2 treble 
V:3 bass nm="Choir Pad, Christine, 88.88.88"
V:4 bass 
V:1
 [DF][EG] [FA]4 [FA]2 [Gd]4 | [GB]2 [FA]4 [DF]2 [FA]4 | A2 [GB]4 [GB]2 [Ge]4 | %3
w: By~Ernest~Richard~Kroeger,~1901 * * * *|||
 [=Gd]2 [Ac]4 [GB]2 [EA]4 | [DF][EG] [FA]4 [FA]2 [Gd]4 | [GB]2 [FA]4 [DF]2 [FA]4 | %6
w: |||
 [_FA]2 [Ec]4 [Ac]2 [Ad]4 | [Ac]2 B2 c2 [=GB]2 [EA]4 | A2 [Ge]4 [Ge]2 [GB]4 | %9
w: |||
 [Gc]2 [Fd]4 [GB]2 [FA]4 | [FA]2 [GB]4 [AB]2 B2 e2 | [=Gd]2 [Ac]4 [_Gc]2 [Fd]4- | [Fd]6 z6 |] %13
w: ||||
V:2
 x12 | x12 | x12 | x12 | x12 | x12 | x12 | z2 A4 z6 | x12 | x12 | z6 z2 G4 | x12 | x12 |] %13
V:3
 A,2 A,4 A,2 B,4 | C2[K:treble] D4 A,2 D4 | D2 D4 D2 E4 | E2 E4 D2 C4 | A,2 D4 _C2 B,4 | %5
 D2[K:treble] D4 A,2 D4 | D2 A,2 C2 E2 F4 | E2 =D4 _D2 C4 | C2 C4 C2 D4 | E2 D4 D2 D4 | %10
 D2 D4 =D2 E4 | E2 E4 E2 D4- | D6 z6 |] %13
V:4
 D,2 D,4 D,2 D,4 | D,2 D,4 D,2 D,4 | F,2 G,4 G,2 E,4 | E,2 A,4 A,2 A,4 | D,2 D,4 D,2 G,,4 | %5
 B,,2 D,4 D,2 D,4 | D,2 E,4 E,2 E,4 | E,2 E,4 E,2 A,4 | A,2 A,4 A,2 A,4 | A,2 B,4 G,2 D,4 | %10
 D,2 G,4 F,2 E,4 | E,2 A,4 A,2 D,4- | D,6 z6 |] %13

